;FLAVOR:Marlin
;TIME:100360
;Filament used: 20.154m
;Layer height: 0.06
;MINX:37.451
;MINY:46.852
;MINZ:0.3
;MAXX:182.549
;MAXY:173.147
;MAXZ:19.98
;TARGET_MACHINE.NAME:Anet ET4
;Generated with Cura_SteamEngine 5.7.1
M140 S60
M105
M190 S60
M104 S200
M105
M109 S200
M82 ;absolute extrusion mode
G28 ;Home
G1 Z15.0 F2000 ;Move the platform
G92 E0
G92 E0
G1 F1500 E-6.5
;LAYER_COUNT:329
;LAYER:0
M107
M204 S1000
G0 F7500 X40.54 Y49.804 Z0.3
;TYPE:SKIRT
G1 F1500 E0
G1 X42.355 Y48.723 E0.10539
G1 X42.692 Y48.585 E0.12356
G1 X44.582 Y48.299 E0.21893
G1 X50.289 Y48.26 E0.50366
G1 X52.048 Y47.209 E0.60589
G1 X53.77 Y46.927 E0.69294
G1 X175.602 Y46.852 E6.77117
G1 X177.498 Y47.318 E6.86857
G1 X179.526 Y48.371 E6.98258
G1 X180.985 Y49.932 E7.08918
G1 X182.192 Y51.955 E7.2067
G1 X182.474 Y53.673 E7.29356
G1 X182.549 Y155.502 E12.37383
G1 X182.083 Y157.398 E12.47124
G1 X181.03 Y159.426 E12.58524
G1 X179.469 Y160.885 E12.69184
G1 X177.446 Y162.092 E12.80937
G1 X175.728 Y162.374 E12.89623
G1 X150.749 Y162.441 E14.14244
G1 X150.749 Y166.201 E14.33003
G1 X150.283 Y168.097 E14.42743
G1 X149.23 Y170.125 E14.54144
G1 X147.669 Y171.584 E14.64804
G1 X145.646 Y172.791 E14.76556
G1 X143.928 Y173.073 E14.85242
G1 X57.195 Y173.147 E19.17955
G1 X55.307 Y172.683 E19.27655
G1 X53.889 Y171.949 E19.35621
G1 X44.398 Y171.949 E19.82971
G1 X42.502 Y171.483 E19.92712
G1 X40.474 Y170.43 E20.04112
G1 X39.015 Y168.869 E20.14772
G1 X37.808 Y166.846 E20.26525
G1 X37.526 Y165.128 E20.35211
G1 X37.451 Y55.196 E25.83664
G1 X37.917 Y53.3 E25.93405
G1 X38.97 Y51.272 E26.04805
G1 X40.54 Y49.804 E26.15528
G0 F7500 X40.779 Y50.128
G1 F1500 X42.56 Y49.067 E26.25871
G1 X42.803 Y48.972 E26.27173
G1 X44.585 Y48.699 E26.36167
G1 X50.4 Y48.659 E26.65179
G1 X52.186 Y47.592 E26.75558
G1 X53.835 Y47.322 E26.83895
G1 X175.556 Y47.252 E32.91163
G1 X177.355 Y47.694 E33.00405
G1 X179.281 Y48.694 E33.11232
G1 X180.661 Y50.171 E33.21317
G1 X181.809 Y52.095 E33.32495
G1 X182.079 Y53.738 E33.40801
G1 X182.149 Y155.456 E38.48275
G1 X181.707 Y157.255 E38.57517
G1 X180.707 Y159.181 E38.68344
G1 X179.23 Y160.561 E38.78428
G1 X177.306 Y161.709 E38.89606
G1 X175.663 Y161.979 E38.97913
G1 X150.349 Y162.042 E40.24205
G1 X150.349 Y166.155 E40.44725
G1 X149.907 Y167.954 E40.53967
G1 X148.907 Y169.88 E40.64794
G1 X147.43 Y171.26 E40.74879
G1 X145.506 Y172.408 E40.86057
G1 X143.863 Y172.678 E40.94364
G1 X57.241 Y172.747 E45.26523
G1 X55.45 Y172.307 E45.35724
G1 X53.986 Y171.549 E45.43949
G1 X44.444 Y171.549 E45.91554
G1 X42.645 Y171.107 E46.00796
G1 X40.719 Y170.107 E46.11623
G1 X39.339 Y168.63 E46.21707
G1 X38.191 Y166.706 E46.32885
G1 X37.921 Y165.063 E46.41192
G1 X37.851 Y55.242 E51.89091
G1 X38.293 Y53.443 E51.98334
G1 X39.293 Y51.517 E52.0916
G1 X40.779 Y50.128 E52.19308
G0 F7500 X41.018 Y50.452
G1 F1500 X42.765 Y49.411 E52.29454
G1 X42.908 Y49.36 E52.30212
G1 X44.588 Y49.099 E52.38694
G1 X50.535 Y49.058 E52.68364
G1 X50.63 Y48.986 E52.68959
G1 X52.324 Y47.975 E52.78801
G1 X53.9 Y47.717 E52.86768
G1 X175.509 Y47.652 E58.93478
G1 X177.213 Y48.071 E59.02233
G1 X179.036 Y49.017 E59.12479
G1 X180.34 Y50.413 E59.2201
G1 X181.426 Y52.233 E59.32584
G1 X181.684 Y53.803 E59.40521
G1 X181.749 Y155.409 E64.47436
G1 X181.33 Y157.113 E64.5619
G1 X180.384 Y158.936 E64.66437
G1 X178.988 Y160.24 E64.75968
G1 X177.168 Y161.326 E64.86541
G1 X175.598 Y161.584 E64.94479
G1 X149.949 Y161.643 E66.22443
G1 X149.949 Y166.108 E66.44719
G1 X149.53 Y167.812 E66.53473
G1 X148.584 Y169.635 E66.6372
G1 X147.188 Y170.939 E66.7325
G1 X145.368 Y172.025 E66.83824
G1 X143.798 Y172.283 E66.91762
G1 X57.287 Y172.347 E71.23367
G1 X55.593 Y171.931 E71.3207
G1 X54.083 Y171.149 E71.40553
G1 X44.491 Y171.149 E71.88408
G1 X42.787 Y170.73 E71.97163
G1 X40.964 Y169.784 E72.07409
G1 X39.66 Y168.388 E72.1694
G1 X38.574 Y166.568 E72.27513
G1 X38.316 Y164.998 E72.35451
G1 X38.251 Y55.289 E77.82792
G1 X38.67 Y53.585 E77.91546
G1 X39.616 Y51.762 E78.01793
G1 X41.018 Y50.452 E78.11366
G0 F7500 X41.257 Y50.776
G1 F1500 X42.97 Y49.755 E78.21315
G1 X44.591 Y49.499 E78.29502
G1 X50.679 Y49.457 E78.59876
G1 X50.835 Y49.329 E78.60883
G1 X52.462 Y48.358 E78.70336
G1 X53.965 Y48.112 E78.77934
G1 X175.463 Y48.052 E84.8409
G1 X177.07 Y48.447 E84.92346
G1 X178.791 Y49.34 E85.02019
G1 X180.019 Y50.655 E85.10995
G1 X181.043 Y52.371 E85.20965
G1 X181.289 Y53.868 E85.28534
G1 X181.349 Y155.363 E90.34895
G1 X180.954 Y156.97 E90.43151
G1 X180.061 Y158.691 E90.52824
G1 X178.746 Y159.919 E90.618
G1 X177.03 Y160.943 E90.7177
G1 X175.533 Y161.189 E90.79338
G1 X149.549 Y161.244 E92.08973
G1 X149.549 Y166.062 E92.3301
G1 X149.154 Y167.669 E92.41266
G1 X148.261 Y169.39 E92.5094
G1 X146.946 Y170.618 E92.59916
G1 X145.23 Y171.642 E92.69886
G1 X143.733 Y171.888 E92.77454
G1 X57.333 Y171.947 E97.08506
G1 X55.736 Y171.555 E97.1671
G1 X54.307 Y170.817 E97.24734
G1 X54.205 Y170.749 E97.25345
G1 X44.537 Y170.749 E97.73579
G1 X42.93 Y170.354 E97.81835
G1 X41.209 Y169.461 E97.91508
G1 X39.981 Y168.146 E98.00485
G1 X38.957 Y166.43 E98.10454
G1 X38.711 Y164.933 E98.18023
G1 X38.651 Y55.335 E103.6481
G1 X39.046 Y53.728 E103.73066
G1 X39.939 Y52.007 E103.82739
G1 X41.257 Y50.776 E103.91736
G0 F7500 X41.496 Y51.1
G1 F1500 X43.109 Y50.138 E104.01106
G1 X44.594 Y49.899 E104.0861
G1 X50.831 Y49.856 E104.39727
G1 X51.04 Y49.672 E104.41117
G1 X52.6 Y48.741 E104.5018
G1 X54.03 Y48.507 E104.57409
G1 X175.417 Y48.452 E110.63012
G1 X176.927 Y48.823 E110.70769
G1 X178.546 Y49.663 E110.79869
G1 X179.698 Y50.897 E110.88291
G1 X180.66 Y52.509 E110.97657
G1 X180.894 Y53.933 E111.04856
G1 X180.949 Y155.317 E116.10663
G1 X180.578 Y156.827 E116.18421
G1 X179.738 Y158.446 E116.2752
G1 X178.504 Y159.598 E116.35942
G1 X176.892 Y160.56 E116.45308
G1 X175.468 Y160.794 E116.52508
G1 X149.149 Y160.845 E117.83814
G1 X149.149 Y166.016 E118.09612
G1 X148.778 Y167.526 E118.1737
G1 X147.938 Y169.145 E118.26469
G1 X146.704 Y170.297 E118.34892
G1 X145.092 Y171.259 E118.44257
G1 X143.668 Y171.493 E118.51457
G1 X57.379 Y171.547 E122.81954
G1 X55.877 Y171.178 E122.89671
G1 X54.49 Y170.462 E122.97458
G1 X54.335 Y170.349 E122.98415
G1 X44.583 Y170.349 E123.47068
G1 X43.073 Y169.978 E123.54825
G1 X41.454 Y169.138 E123.63925
G1 X40.302 Y167.904 E123.72347
G1 X39.34 Y166.292 E123.81713
G1 X39.106 Y164.868 E123.88913
G1 X39.051 Y55.381 E129.35145
G1 X39.422 Y53.871 E129.42903
G1 X40.262 Y52.252 E129.52003
G1 X41.496 Y51.1 E129.60425
G0 F7500 X41.738 Y51.421
G1 F1500 X43.246 Y50.521 E129.69186
G1 X44.597 Y50.299 E129.76017
G1 X50.989 Y50.255 E130.07907
G1 X51.245 Y50.016 E130.09655
G1 X52.74 Y49.124 E130.1834
G1 X54.095 Y48.902 E130.2519
G1 X175.37 Y48.852 E136.30234
G1 X176.785 Y49.2 E136.37504
G1 X178.301 Y49.986 E136.46023
G1 X179.377 Y51.139 E136.53891
G1 X180.277 Y52.647 E136.62653
G1 X180.499 Y53.998 E136.69483
G1 X180.549 Y155.27 E141.74731
G1 X180.201 Y156.685 E141.82001
G1 X179.415 Y158.201 E141.90521
G1 X178.262 Y159.277 E141.98389
G1 X176.754 Y160.177 E142.0715
G1 X175.403 Y160.399 E142.13981
G1 X148.749 Y160.446 E143.46958
G1 X148.749 Y165.969 E143.74513
G1 X148.401 Y167.384 E143.81782
G1 X147.615 Y168.9 E143.90302
G1 X146.462 Y169.976 E143.9817
G1 X144.954 Y170.876 E144.06932
G1 X143.603 Y171.098 E144.13762
G1 X57.425 Y171.147 E148.43706
G1 X56.02 Y170.802 E148.50924
G1 X54.674 Y170.107 E148.58481
G1 X54.473 Y169.949 E148.59757
G1 X44.63 Y169.949 E149.08864
G1 X43.215 Y169.601 E149.16134
G1 X41.699 Y168.815 E149.24653
G1 X40.623 Y167.662 E149.32521
G1 X39.723 Y166.154 E149.41283
G1 X39.501 Y164.803 E149.48113
G1 X39.451 Y55.428 E154.93787
G1 X39.799 Y54.013 E155.01057
G1 X40.585 Y52.497 E155.09577
G1 X41.738 Y51.421 E155.17445
G0 F7500 X41.98 Y51.742
G1 F1500 X43.384 Y50.904 E155.25602
G1 X44.662 Y50.694 E155.32064
G1 X51.148 Y50.654 E155.64423
G1 X51.487 Y50.338 E155.66735
G1 X52.88 Y49.507 E155.74827
G1 X54.16 Y49.297 E155.81299
G1 X175.324 Y49.252 E161.85788
G1 X176.642 Y49.576 E161.9256
G1 X178.056 Y50.309 E162.00506
G1 X179.056 Y51.381 E162.0782
G1 X179.894 Y52.785 E162.15977
G1 X180.104 Y54.063 E162.22439
G1 X180.149 Y155.224 E167.27133
G1 X179.825 Y156.542 E167.33904
G1 X179.092 Y157.956 E167.4185
G1 X178.02 Y158.956 E167.49164
G1 X176.616 Y159.794 E167.57322
G1 X175.338 Y160.004 E167.63783
G1 X148.349 Y160.047 E168.98432
G1 X148.349 Y165.923 E169.27747
G1 X148.025 Y167.241 E169.34519
G1 X147.292 Y168.655 E169.42465
G1 X146.22 Y169.655 E169.49779
G1 X144.816 Y170.493 E169.57936
G1 X143.538 Y170.703 E169.64398
G1 X57.471 Y170.747 E173.93788
G1 X56.163 Y170.426 E174.00507
G1 X54.858 Y169.752 E174.07835
G1 X54.621 Y169.549 E174.09391
G1 X44.676 Y169.549 E174.59007
G1 X43.358 Y169.225 E174.65779
G1 X41.944 Y168.492 E174.73725
G1 X40.944 Y167.42 E174.81039
G1 X40.106 Y166.016 E174.89196
G1 X39.896 Y164.738 E174.95657
G1 X39.851 Y55.474 E180.40778
G1 X40.175 Y54.156 E180.47549
G1 X40.908 Y52.742 E180.55495
G1 X41.98 Y51.742 E180.62809
G0 F7500 X42.225 Y52.061
G1 F1500 X43.522 Y51.287 E180.70344
G1 X44.727 Y51.089 E180.76437
G1 X51.307 Y51.053 E181.09265
G1 X51.729 Y50.66 E181.12142
G1 X53.02 Y49.89 E181.19641
G1 X54.225 Y49.692 E181.25734
G1 X175.278 Y49.652 E187.2967
G1 X176.499 Y49.952 E187.35942
G1 X177.809 Y50.631 E187.43304
G1 X178.737 Y51.626 E187.50092
G1 X179.511 Y52.923 E187.57627
G1 X179.709 Y54.128 E187.6372
G1 X179.749 Y155.178 E192.6786
G1 X179.449 Y156.399 E192.74133
G1 X178.77 Y157.709 E192.81494
G1 X177.775 Y158.637 E192.88282
G1 X176.478 Y159.411 E192.95818
G1 X175.273 Y159.609 E193.0191
G1 X147.949 Y159.648 E194.3823
G1 X147.949 Y165.877 E194.69307
G1 X147.649 Y167.098 E194.7558
G1 X146.97 Y168.408 E194.82941
G1 X145.975 Y169.336 E194.89729
G1 X144.678 Y170.11 E194.97264
G1 X143.473 Y170.308 E195.03357
G1 X57.517 Y170.347 E199.32193
G1 X56.306 Y170.05 E199.38414
G1 X55.042 Y169.397 E199.45512
G1 X54.78 Y169.149 E199.47312
G1 X44.722 Y169.149 E199.97491
G1 X43.501 Y168.849 E200.03764
G1 X42.191 Y168.17 E200.11125
G1 X41.263 Y167.175 E200.17913
G1 X40.489 Y165.878 E200.25449
G1 X40.291 Y164.673 E200.31541
G1 X40.251 Y55.52 E205.76108
G1 X40.551 Y54.299 E205.8238
G1 X41.23 Y52.989 E205.89742
G1 X42.225 Y52.061 E205.9653
G0 F7500 X42.467 Y52.383
G1 F1500 X43.662 Y51.67 E206.03472
G1 X44.792 Y51.484 E206.09186
G1 X51.466 Y51.452 E206.42483
G1 X51.971 Y50.982 E206.45925
G1 X53.16 Y50.273 E206.52831
G1 X54.29 Y50.087 E206.58544
G1 X175.232 Y50.052 E212.61927
G1 X176.356 Y50.328 E212.67701
G1 X177.562 Y50.953 E212.74478
G1 X178.415 Y51.868 E212.80718
G1 X179.128 Y53.063 E212.87661
G1 X179.314 Y54.193 E212.93374
G1 X179.349 Y155.132 E217.96961
G1 X179.073 Y156.256 E218.02735
G1 X178.448 Y157.462 E218.09512
G1 X177.533 Y158.315 E218.15753
G1 X176.338 Y159.028 E218.22695
G1 X175.208 Y159.214 E218.28409
G1 X147.549 Y159.249 E219.664
G1 X147.549 Y165.831 E219.99238
G1 X147.273 Y166.955 E220.05012
G1 X146.648 Y168.161 E220.11789
G1 X145.733 Y169.014 E220.1803
G1 X144.538 Y169.727 E220.24972
G1 X143.408 Y169.913 E220.30686
G1 X57.567 Y169.947 E224.58948
G1 X56.445 Y169.672 E224.64712
G1 X55.226 Y169.042 E224.71558
G1 X54.954 Y168.749 E224.73552
G1 X44.768 Y168.749 E225.2437
G1 X43.644 Y168.473 E225.30145
G1 X42.438 Y167.848 E225.36921
G1 X41.585 Y166.933 E225.43162
G1 X40.872 Y165.738 E225.50105
G1 X40.686 Y164.608 E225.55818
G1 X40.651 Y55.566 E230.99831
G1 X40.927 Y54.442 E231.05605
G1 X41.552 Y53.236 E231.12382
G1 X42.467 Y52.383 E231.18623
G0 F7500 X42.709 Y52.705
G1 F1500 X43.802 Y52.053 E231.24972
G1 X44.857 Y51.879 E231.30307
G1 X51.624 Y51.851 E231.64068
G1 X52.21 Y51.306 E231.6806
G1 X53.3 Y50.656 E231.74392
G1 X54.355 Y50.482 E231.79726
G1 X175.185 Y50.452 E237.8255
G1 X176.214 Y50.705 E237.87836
G1 X177.315 Y51.275 E237.94022
G1 X178.093 Y52.11 E237.99716
G1 X178.745 Y53.203 E238.06065
G1 X178.919 Y54.258 E238.114
G1 X178.949 Y155.085 E243.14428
G1 X178.696 Y156.114 E243.19714
G1 X178.126 Y157.215 E243.259
G1 X177.291 Y157.993 E243.31593
G1 X176.198 Y158.645 E243.37943
G1 X175.143 Y158.819 E243.43277
G1 X147.149 Y158.849 E244.8294
G1 X147.149 Y165.784 E245.17539
G1 X146.896 Y166.813 E245.22826
G1 X146.326 Y167.914 E245.29011
G1 X145.491 Y168.692 E245.34705
G1 X144.398 Y169.344 E245.41054
G1 X143.343 Y169.518 E245.46389
G1 X57.613 Y169.547 E249.74098
G1 X56.586 Y169.295 E249.79373
G1 X55.474 Y168.721 E249.85617
G1 X55.13 Y168.349 E249.88144
G1 X44.815 Y168.349 E250.39606
G1 X43.786 Y168.096 E250.44893
G1 X42.685 Y167.526 E250.51078
G1 X41.907 Y166.691 E250.56772
G1 X41.255 Y165.598 E250.63121
G1 X41.081 Y164.543 E250.68456
G1 X41.051 Y55.613 E256.1191
G1 X41.304 Y54.584 E256.17197
G1 X41.874 Y53.483 E256.23382
G1 X42.709 Y52.705 E256.29076
G0 F7500 X42.951 Y53.027
G1 F1500 X43.942 Y52.436 E256.34832
G1 X44.922 Y52.274 E256.39788
G1 X51.781 Y52.25 E256.74008
G1 X52.449 Y51.63 E256.78555
G1 X53.44 Y51.039 E256.84311
G1 X54.42 Y50.877 E256.89267
G1 X175.139 Y50.852 E262.91536
G1 X176.071 Y51.081 E262.96325
G1 X177.068 Y51.597 E263.01925
G1 X177.771 Y52.352 E263.07072
G1 X178.362 Y53.343 E263.12829
G1 X178.524 Y54.323 E263.17784
G1 X178.549 Y155.039 E268.20258
G1 X178.32 Y155.971 E268.25046
G1 X177.804 Y156.968 E268.30647
G1 X177.049 Y157.671 E268.35794
G1 X176.058 Y158.262 E268.41551
G1 X175.078 Y158.424 E268.46506
G1 X146.749 Y158.449 E269.8784
G1 X146.749 Y165.738 E270.24205
G1 X146.52 Y166.67 E270.28993
G1 X146.004 Y167.667 E270.34594
G1 X145.249 Y168.37 E270.39741
G1 X144.258 Y168.961 E270.45497
G1 X143.278 Y169.123 E270.50453
G1 X57.659 Y169.147 E274.77608
G1 X56.729 Y168.919 E274.82385
G1 X55.722 Y168.399 E274.88039
G1 X55.306 Y167.949 E274.91097
G1 X44.861 Y167.949 E275.43207
G1 X43.929 Y167.72 E275.47995
G1 X42.932 Y167.204 E275.53596
G1 X42.229 Y166.449 E275.58742
G1 X41.638 Y165.458 E275.64499
G1 X41.476 Y164.478 E275.69455
G1 X41.451 Y55.659 E281.12355
G1 X41.68 Y54.727 E281.17143
G1 X42.196 Y53.73 E281.22744
G1 X42.951 Y53.027 E281.2789
G0 F7500 X43.19 Y53.351
G1 F1500 X44.082 Y52.819 E281.33072
G1 X44.987 Y52.669 E281.37649
G1 X51.998 Y52.649 E281.72627
G1 X52.116 Y52.485 E281.73635
G1 X52.688 Y51.954 E281.77529
G1 X53.58 Y51.422 E281.8271
G1 X54.485 Y51.272 E281.87287
G1 X175.093 Y51.252 E287.89003
G1 X175.928 Y51.457 E287.93292
G1 X176.823 Y51.92 E287.98319
G1 X177.447 Y52.591 E288.02891
G1 X177.979 Y53.483 E288.08073
G1 X178.129 Y54.388 E288.12649
G1 X178.149 Y154.993 E293.1457
G1 X177.944 Y155.828 E293.18859
G1 X177.481 Y156.723 E293.23886
G1 X176.81 Y157.347 E293.28458
G1 X175.918 Y157.879 E293.33639
G1 X175.013 Y158.029 E293.38216
G1 X146.349 Y158.049 E294.81221
G1 X146.349 Y165.692 E295.19353
G1 X146.144 Y166.527 E295.23642
G1 X145.681 Y167.422 E295.28669
G1 X145.01 Y168.046 E295.33241
G1 X144.118 Y168.578 E295.38422
G1 X143.213 Y168.728 E295.42999
G1 X57.705 Y168.747 E299.696
G1 X56.87 Y168.542 E299.7389
G1 X55.971 Y168.078 E299.78937
G1 X55.482 Y167.549 E299.82531
G1 X44.907 Y167.549 E300.3529
G1 X44.072 Y167.344 E300.3958
G1 X43.177 Y166.881 E300.44607
G1 X42.553 Y166.21 E300.49178
G1 X42.021 Y165.318 E300.5436
G1 X41.871 Y164.413 E300.58937
G1 X41.851 Y55.705 E306.01283
G1 X42.056 Y54.87 E306.05572
G1 X42.519 Y53.975 E306.106
G1 X43.19 Y53.351 E306.15171
G0 F7500 X43.429 Y53.675
G1 F1500 X44.222 Y53.202 E306.19778
G1 X45.053 Y53.064 E306.23981
G1 X52.222 Y53.049 E306.59747
G1 X52.388 Y52.778 E306.61332
G1 X52.927 Y52.278 E306.65
G1 X53.72 Y51.805 E306.69607
G1 X54.551 Y51.667 E306.7381
G1 X175.047 Y51.652 E312.74967
G1 X175.785 Y51.833 E312.78758
G1 X176.578 Y52.243 E312.83211
G1 X177.123 Y52.83 E312.87208
G1 X177.596 Y53.623 E312.91814
G1 X177.734 Y54.454 E312.96017
G1 X177.749 Y154.947 E317.97378
G1 X177.568 Y155.685 E318.01169
G1 X177.158 Y156.478 E318.05623
G1 X176.571 Y157.023 E318.09619
G1 X175.778 Y157.496 E318.14226
G1 X174.947 Y157.634 E318.18429
G1 X145.949 Y157.649 E319.631
G1 X145.949 Y165.646 E320.02998
G1 X145.768 Y166.384 E320.06789
G1 X145.358 Y167.177 E320.11242
G1 X144.771 Y167.722 E320.15239
G1 X143.978 Y168.195 E320.19845
G1 X143.147 Y168.333 E320.24048
G1 X57.751 Y168.347 E324.5009
G1 X57.013 Y168.166 E324.53881
G1 X56.219 Y167.756 E324.58339
G1 X55.657 Y167.149 E324.62466
G1 X44.953 Y167.149 E325.15869
